X:1122
M:3/4
L:1/8
Q:1/4=104
K:G Minor
g>a   | b2 a2 g>a| g<f d>=efd       |{d}c2{B}A2  G>F|F4
ga    | b2 ba`ga | b2  d2  d2       |   dc```Bc``d=e|f2B2
cd/=e/| f=efa`gf | gf``gb``ag       |   fd```cB``AG |F4

